X: 15569
T: Glorishears
R: polka
M: 2/4
K: Gmajor
D|G>G GA|G2 DC|B,>C DE|D2 DD|
G>G GA|G2 D2|B,>C DE|D2- D2|
G>G GA|G2 G2|F>G AB|A2- A2|
G/A/B/A/ Gd/c/|BA G||
|:d/c/|BB/A/ B/c/d/B/|cA A/B/c|BB/A/ GB|A/G/F/E/ D2|
GF/E/ DG|AG/F/ GA|BA/G/ F/G/A/F/|1 G2- G:|2 G2 G||

